X:1
T:Pianotrio No. 1 in Es
T:Pianotrio No. 1 in Es
T:Opus 1
T:Ludwig Van Beethoven
C:Ludwig Van Beethoven
%%score 1 2 { ( 3 6 ) | ( 4 5 ) }
L:1/8
Q:1/4=144
M:4/4
K:Eb
V:1 treble nm="Viool" snm="Vl."
V:2 bass nm="Cello" snm="Vc."
V:3 treble nm="Piano" snm="Pno."
V:6 treble 
V:4 bass 
V:5 bass 
V:1
"^Allegro"!f! [G,Ee]2 z2 z4 | z4!p! .[G,E]2 .[G,E]2 | .[G,E]2 z2 z4 | z4 .G,2 .G,2 | .A,2 z2 z4 | %5
 z2 (D2 F2 A2) | (A2 G2) z2 (F2 | E2) z2 .[A,D]2 z2 | .[G,E]2 z2 z4 | .B2 (B2- B=BcA) | %10
 G2 z!f! .E .G.B.e.g | .b2 z2 ([A,D]4 | [G,E]2) (E2 G2 E2) | z2 (F2 A2 F2) | z2 (G2 B2 G2) | %15
 (A4 F4) | .G2 (G2 B2 G2) | z2 (A2 _c2 A2) | z2 (B2 _d2 B2) | e2 c2 A2 A2 | G2 z!p! .B, .E.G.B.d | %21
 (.e2 .e2 .e2 .e2) | (.e2 .e2 .e2 .e2) | (.d2 .d2 .d2 .d2) | [B=e]8 | [=Af]2 z2 z2 z =A, | %26
 [B,=E]8 | =A,2 z (D .C2) z (B, | .=A,2) z (D .C2) z (B, | =A,2) z2!ff! [=Af]2 z2 | F2 z2 z4 | %31
 F4- (FDEC) |!pp! .D4 .D4 | D6!p! (G2 | E2 D2 C2 D2 | E2 G2 D2) z2 | .E4 .E4 | E6!p! .F2 | %38
 .D2 .C2 .D2 .=E2 | (=E4 F^FG_E) | (D2 EF G=ABc) | (dcB=A GFED) | (EG=BG dGFG) | (EGCG =B,G^FG) | %44
 z (CEG c=BcB) | (cdcB =AGFE) | (DFCF DF=EB) | z (BcB =AGFE) | (DFCF DF=EB) | %49
 z!<(! (BcB =AG^FA)!<)! | G4 =A4 | B2 z2 z4 | z8 | z8 |!p! (^FG)(FG) (C3 D/E/) | F2 z2 z4 | z8 | %57
 z8 |!p! .G4 (C3 D/E/) | (FG=AB cBAB) | .G4 (C3 D/E/) | .F.G.=A.B .c.d.e.f | (^fg)(fg) (c3 d/e/) | %63
 .f2 (gf edcB) | (=B4 c2 d2) | .e2 (gf edcB) | (=A4 B2 c2) | d2 z2 z4 | G2 g2 g2 g2 | g2 z2 z4 | %70
 (c4 d2 e2) | .e2 B4 .B2 | .B2 .B2 .B2 .e2 | .[Bf]2 z2 .[Bg]2 z2 | .d2 z2 z2 .c2 | %75
 .[Bf]2 z2 .[Bg]2 z2 | z!f! (db).=a .g.f.e.d | z (dg).f!>(! .e.d.c.B!>)! | (([E=A]8 | %79
 [DB]2)) z2 z4 |!p! (d4 .e2) .c2 | d2 (3.D.E.F (3.G.=A.B (3.c.d.e | (f4 .g2) .=a2 | b2 z2 z4 | %84
 z4 eeee | d2 z2 z4 | z4 eeee | d2 z2 aaaa | g2 z2 eeee | e8 |!<(! d8- | d6!<)!!ff! [EBg]2 | %92
 [DBf]2 z2 [CE=A]2 z2 |!pp! d8- | d6!ff! [Ecg]2 | [Ddf]2 z2 [Fc=a]2 z2 | [DBb]2 z2 z4 | z8 | %98
 z2!p! (TB2 .c2) z2 | z2 (TB2 .c2) z2 | z2 (c2 .B2) (c2 | .B2) z2 z4 | .[DB]2 z2 [DB]2 z2 |1 %103
 [DB]2 z2 z4 :|2 [DB]2 z!p! .B, .D.F.B.d || .f2 z2 z4 | z2 z .=B, .D.F.=B.d | %107
 .f2 z2 .[D=B]2 .[DB]2 | .[Ec]2 z2 z4 | z2 z!f! .C .E.G.c.e |!ff! (g4 .e2) .c2 | .G2 .E2 .C2 .G,2 | %112
 .A,2 z!p! .A, .C.E.A.c | e2 z2 z4 | z2 z .G, .B,._D.G.B | _d2 z2 z4 | z2 z .A, .C.E.A.c | %117
 e4 [A,E]4 | [A,F]8 | (C2 A,2 G,2 _D2) | C2 z .A, .C.E.A.c | e2 z2 z4 | z8 | z8 | z8 | B8 | F8 | %127
 ([A,_G]8 | [A,F]2) z2 z4 | (A4 .B2) .c2 | _d2 z2 z4 | (f4 ._g2) .e2 | f2 z2 z4 | (A4 B2 =B2 | %134
 c2) z2 z4 | (G4 A2 F2) | G2 (3.C.D.=E (3.F.G.=A (3.=B.c.d | (_e8 | d2) z2 z4 | (B6 =A2) | %140
 .B2 (3.B,.C.D (3.E.F.G (3.=A.B.c | _d8- |!<(! d2 (c4 B2)!<)! | (=A2!>(! _A4 G2)!>)! | F2 z2 z4 | %145
 z4 z2!p! (e2 | .d2) z2 z4 | z4 z2 (e2 | .d2) z2 z4 | z8 | z8 | z8 | (F4 _G2 E2 | F2) z2 z4 | %154
 (B6 =A2 | B6 =A2) | B8- |!<(! B8!<)! | A2 z2 z4 |!f! A,8 |!ff! [G,E]2 z2 z4 | %161
 z4!p! .[G,E]2 .[G,E]2 | .[G,E]2 z .E .G.B.e.g | .b2 z2 .G,2 .G,2 | .A,2 z .C .E.A.c.e | %165
 .a2 (D2 F2 A2) | (A2 G2) z2 (F2 | E2) z2 .[A,D]2 z2 | .[G,E]2 (G2 E2) z2 | z2 (A2 F2) z2 | %170
 z2 (B2 G2) z2 | (A4 F4) | .E(G,B,E) (GEGE) | (A2 F2) z (FAF) | (B2 G2) z (GBG) | [E=A]8 | %176
 [DB]2 z2 z4 | =A,8 | B,2 z (G F2) z (E | D2) z (g f2) z (e | d2) z2!ff! [DBb]2 z2 | B,2 z2 z4 | %182
 B4- B(GAF) | .[B,G]4 .[B,G]4 | [B,G]6!p! (c2 | A2 G2 F2 G2 | A2 c2 G2) z2 | .A4 .A4 | A6!p! .B2 | %189
 .G2 .F2 .G2 .=A2 | (=A4 B=Bc_A) | .E(G,B,E) (GBef) | (gfed cBAG) | (Ac=Ec FcBc) | (AcFc =Ec=Bc) | %195
 z (FAc f=efe) | (fgfe dcBA) | (GBFB GB=Ae) | z (efe dcBA) | (GBFB GB=Ae) | z!<(! (efe dc=Bd)!<)! | %201
 c2 z2 (F4 | G2) z2 z4 | z8 | z8 | (=Bc)(Bc) (F3 G/.A/) | B2 z2 z4 | z8 | z8 | .c4 (F3 G/A/) | %210
 (Bcde fede) | .c4 (F3 G/A/) | .B.c.d.e .f.g.a.b | (=bc')(bc') (f3 g/a/) | .b2 (c'b agfe) | %215
 (=e4 f2 g2) | .a2 (c'b agfe) | (d4 e2 f2) | g2 z2 z4 | (B2 cB AGF=E) | F2 z2 z4 | (A2 BA GFED) | %222
 .E2 .F2 .G2 .A2 | .B2 .B2 .B2 .d2 | .e2 z2 .[Ec]2 z2 | .[EB]2 z2 z2!f! .[Fd]2 | %226
 .[Ee]2 z2 .[Ec]2 z2 | G2 z2 z4 |!f! G2 (^F/G/A/G/)!>(! .=F.E.A.G!>)! |!p! .F.E.D.C .B,.A,.G,.A, | %230
 G,2 z2 z4 | (B,4 .C2) .D2 | E2 (3.E.F.G (3.A.B.c (3.d.e.f | (g4 .a2) .f2 | %234
 g2 (3.G,.A,.B, (3.C.D.E (3.F.G.A | (B4 .c2) .d2 | e2 (3.G,.A,.B, (3.C.D.E (3.F.G.A | (B4 c2 d2) | %238
 (e4 f2 g2) | aaaa aaaa | a8 |!p! g8- |!<(! g6!ff! [Fca]2!<)! | [eg]2 z2 [B,Fd]2 z2 |!pp! g8- | %245
 g6!ff! [Aec']2 | [Geb]2 z2 [B,Fd]2 z2 | [B,Ge]2 z2 z4 | (B4- BGAF) |!p! .[B,G]4 .[B,G]4 | %250
 [B,G]6!p! (c2 | A2 G2 F2 G2 | A2 c2 G2) z2 | .[CA]4 .[_CA]4 | [B,A]6!p! .B2 | .G2 .F2 .G2 .=A2 | %256
 (=A4 B2) ._A2 | .G2 .F2 .G2 .=A2 | (=A4 B2) (=B2 | c2 =B2 c2 d2) | z (egf edc=B) | %261
 (c2 =B2 c2 d2) | .[Ee]2 z2 .[Ec]2 z2 | .G2 z2 z2 .[Fd]2 | .[Ee]2 z2 .[Ec]2 z2 | G2 z2 z4 | z8 | %267
!p! EEEE EEEE | EEEE EEEE |!<(! EEEE EEEE | EEEE EEEE!<)! |!ff! E!>(!EEE DDDD!>)! | %272
!p! E2 z2 z2 z .e | .B.G.E.B, .G,2 z .e | .c.A.E.C .A,2 z!f! .e | .c.=A z .A ._G.E.C.=A, | %276
 B,2 z2 z4 | z8 |!f! G,/B,/E/B,/ G,/B,/E/B,/ G,/B,/E/B,/ G,/B,/E/B,/ | %279
 A,/B,/E/B,/ A,/B,/E/B,/ A,/B,/D/B,/ A,/B,/D/B,/ | [G,E]2 z2 z4 | z4 z2!p! (a2 | .g2) z2 z4 | %283
 z4 z2 (a2 | .g2) (a2 .g2) (a2 | .g2) z2 z4 | z8 | z8 | (e/f/g/a/ b/a/g/f/ e/d/c/B/ A/G/F/E/) | %289
 .D2 z .B, .D.F.B.d | (e/f/g/a/ b/a/g/f/ e/d/c/B/ A/G/F/E/) |!ff! .D2 z .B, .D.F.B.d | %292
 .e2 z2 .[EBg]2 z2 | .[G,Ee]2 z2 z4 |] %294
V:2
!f! E,2 z2 z4 | z4!p! .E,2 .E,2 | .E,2 z2 z4 | z4 .E,2 .E,2 | .A,,2 z2 z4 | z4 (B,4 | C4) z2 (A,2 | %7
 B,2) z2 .B,,2 z2 | .E,2 z!p! .E,, .G,,.B,,.E,.G, | .B, z z2 (D,4 | E,2) z!f! .E,, .G,,.B,,.E,.G, | %11
 .B, z z2 B,,4 | (E,2 G,2 B,2 G,2) | z2 (D2 F2 D2) | z2 (B,2 _D2 B,2) | (C4 =D4) | E8 | D8 | _D8 | %19
 C2 A,2 F,2 B,2 | E,2 z2 z4 | z8 | z2 z!p! .F,, .=A,,.C,.F,.=A, | .B,2 z .B,, .D,.F,.B,.=A, | G,8 | %25
 F,2 z2 z2 z F,, | G,,8 | F,,2 z (B,, .=A,,2) z (G,, | .F,,2) z (B, .=A,2) z G, | %29
 F,2 z2!ff! F,,2 z2 | F,4- F,(^F,G,E, | F,D,E,C, D,B,,C,=A,,) |!pp! .B,,4 .B,,4 | B,,6!p! (=B,,2 | %34
 C,2 G,,2 E,,2 D,,2 | C,,2 E,,2 G,,2) z2 | .C,4 .C,4 | =A,,6!p! .A,,2 | .B,,2 .=A,,2 .B,,2 .G,,2 | %39
 F,,6 z2 | .B,,4 .B,,4 | B,,6!p! (=B,,2 | C,2 G,2 E,2 D,2 | C,2 D,2 E,2) z2 | .C,4 .B,,4 | %45
 .=A,,6!p! .A,,2 | .B,,2 .=A,,2 .B,,2 .G,,2 | F,,4 .F,2 .=A,2 | .B,2 .=A,2 .B,2 .G,2 | %49
!<(! F,6 D,2!<)! | E,4 (E,4 | D,2) z2 z4 | z8 | z8 |!p! E,4 (E,4 | D,2) z2 z4 | z8 | z8 | (E,8 | %59
 D,2) z2 z4 | (E,,8 | D,,2) z2 z4 |!<(! (=E,4!>(! _E,4!<)!!>)! | D,2) z2 z4 | G,8 | C2 z2 z4 | %66
 F,8 | B,!p!(FGF EDCB,) | (=B,4 C2 D2) | E2 z2 z4 | (E2 FE DCB,=A,) | .B,2 .A,2 .G,2 .D2 | %72
 .E2 .D2 .E2 .C2 | .D2 z2 .E2 z2 | .F2 z2 z2 .E2 | .D2 z2 .E2 z2 | F2 z2 z4 | F,2 z2 z4 | (F,,8 | %79
 B,,2) z2 z4 | z8 | z8 | z8 | z2!p! (3.B,,.C,.D, (3.E,.F,.G, (3.=A,.B,.C | (D4 .E2) .C2 | %85
 D2 (3.B,,.C,.D, (3.E,.F,.G, (3.=A,.B,.C | (D4 E2 C2) | (D4 E2 F2) | G2 z2 z4 | z4!p! C4 | %90
!<(! B,8- | B,6!<)!!ff! E,2 | F,2 z2 F,2 z2 |!pp! B,8- | B,6!ff! E,2 | F,2 z2 F,,2 z2 | %96
 B,,2 z2 z4 | z8 | z2!p! (D2 .E2) z2 | z2 (D2 .E2) z2 | z8 | z2!pp! (C2 .B,2) (C2 | %102
 .B,2) z2 B,,2 z2 |1 B,,2 z2 z4 :|2 B,,2 z2 z4 || z4!p! .B,,2 .B,,2 | %106
 .G,,2 z .G,, .=B,,.D,.G,.=B, | .D2 z2 .G,,2 .G,,2 | .C,2 z2 z4 | z2 z!f! .C,, .E,,.G,,.C,.E, | %110
!ff! (G,4 .E,2) .C,2 | .G,,2 .E,,2 .C,,2 .G,,2 | A,,2 z2 z4 | z4!p! (A,4 | G,2) z2 z4 | z4 (G,4 | %116
 A,2) z2 z4 | C,8 | _D,8 | E,8 | A,,2 z2 z4 | z8 | z2 z!mf! .F,, .=A,,.C,.F,.=A, | .C2 z2 z4 | %124
!p! B,,8 | _G,,8 | A,,8 | (A,,8 | _D,,2) z2 z4 | z8 | z8 | z8 | z8 | (_D8 | C2) z2 z4 | %135
 C,2 C2 C2 C2 | C2 z2 z4 | C,2 C2 C2 C2 | C2 (3.B,,.C,.D, (3.E,.F,.G, (3.=A,.B,.C | (D4 E2 C2 | %140
 D2) z2 z4 | B,,2 B,2 B,2 B,2 |!<(! (A,6 G,2!<)! | F,2 D,2!>(! E,2 =A,,2)!>)! | B,,2 z2 z4 | %145
 z4 z2!p! (G2 | .F2) z2 z4 | z4 z2 (_G2 | .F2) z2 z4 | z8 | z8 | z8 | B,,2 B,2 B,2 B,2 | %153
 B,2 z2 z4 | B,,2 B,2 B,2 B,2 | B,,2 B,2 B,2 B,2 | B,,2 z2 z4 | z8 |!p!!<(! (F,,4 G,,2!<)! A,,2) | %159
!f! (B,,4 C,2 D,2) |!ff! E,2 z2 z4 | z4!p! .E,2 .E,2 | .E,2 z2 z4 | z4 .E,2 .E,2 | .C,2 z2 z4 | %165
 z4 (B,4 | C2) z2 z2 (A,2 | B,2) z2 .B,,2 z2 | .E,2 (B,2 G,2) z2 | z2 (F2 D2) z2 | %170
 z2 (_D2 B,2) z2 | (C4 A,4) | G,2 E,2 E,2 E,2 | E,,2 E,2 E,2 E,2 | E,,2 E,2 E,2 E,2 | C8 | %176
 B,2 z2 z4 | C,8 | B,,2 z (E, D,2) z (C, | B,,2) z2 z4 | B,,2 z2!ff! B,2 z2 | B,,2 z2 z4 | z8 | %183
!p! .E,4 .E,4 | E,6!p! (=E,2 | F,2 C,2 A,,2 G,,2 | F,,2 A,,2 C,2) z2 | .F,4 .F,4 | D,6!p! .D,2 | %189
 .E,2 .D,2 .E,2 .C,2 | B,,6 z2 | z8 | z6 (=E,2 | F,2 C2 A,2 G,2 | F,2 A,2 C2) z2 | .F,4 .E,4 | %196
 D,6!p! .D,2 | .E,2 .D,2 .E,2 .C,2 | B,,6 .D,2 | .E,2 .D,2 .E,2 .C,2 |!<(! B,,6 G,,2!<)! | %201
 A,,4 (A,,4 | G,,2) z2 z4 | z8 | z8 | (=A,,4 _A,,4 | G,,2) z2 z4 | z8 | z8 | (A,,8 | G,,2) z2 z4 | %211
 (A,,8 | G,,2) z2 z4 |!<(! (=A,4!<)!!mf!!>(! _A,4!>)! | G,2)!p! z2 z4 | C8 | F,2 z2 z4 | B,8 | %218
 E,(B,CB, A,G,F,E,) | (=E,4 F,2 G,2) | .A,2 (CB, A,G,F,E,) | (D,4 .E,2) .F,2 | %222
 .G,2 .D,2 .E,2 .F,2 | .G,2 .D,2 .E,2 .F,2 | .G,2 z2 .A,2 z2 | .B,2 z2 z2!f! .A,2 | %226
 .G,2 z2 .A,2 z2 | .B,2 z2 z4 |!f! B,,2 z2 z!>(! B,,B,,!>)!B,, | B,,8 | E,,2 z2 z4 | z8 | z8 | z8 | %234
 z8 | z8 | z8 | z8 | (E6 _D2) | (C4 D2 E2) | F8 |!p!!<(! E8- | E6!<)!!ff! A,2 | B,2 z2 B,,2 z2 | %244
!p! E8- | E6!ff! A,2 | B,2 z2 B,,2 z2 | E,2 z2 z4 | z8 |!p! .E,4 .E,4 | =E,6!p! (E,2 | %251
 F,2 C2 A,2 G,2 | F,2 A,2 C2) z2 | .F,4 .E,4 | D,6!p! .B,2 | .B,2 .B,2 .B,2 .E2 | (E4 D2) .B,2 | %257
 .B,2 .B,2 .B,2 .E2 | (E4 D2) (G,2 | A,2 G,2 A,2 F,2) | G,6 (G,2 | A,2 G,2 A,2 F,2) | %262
 .G,2 z2 .A,2 z2 | .B,2 z2 z2 .A,2 | .G,2 z2 .A,2 z2 | .B,2 z2 z4 | z2!p! A,2 B,2 B,,2 | %267
 E,2 z2 z4 |!p! _DDDD DDDD |!<(! CCCC CCCC | CCCC CCCC!<)! |!ff! B,!>(!B,B,B, B,,B,,B,,B,,!>)! | %272
!p! E,2 z .E,, .G,,.B,,.E,.G, | .B,2 z .G,, .B,,.E,.G,.B, | .C2 z .A,,!<(! .C,.E,.A,.C!<)! | %275
!f! (E2 .C).=A, ._G,.E,.C,.=A,, | B,,2 z2 z4 | z8 | B,B,B,B, B,B,B,B, | B,,B,,B,,B,, B,,B,,B,,B,, | %280
 E,2 z2 z4 | z4 z2!p! (F2 | .E2) z2 z4 | z4 z2 (F2 | .E2) (F2 .E2) (F2 | .E2) z2 z4 | z8 | z8 | %288
!pp! E,,2 z .E,, .G,,.B,,.E,.G, | (A,8 | G,2) z2 z4 |!ff! B,,8 | .E,2 z2 .E,,2 z2 | .E,,2 z2 z4 |] %294
V:3
!f! [G,B,E]2 z!p! .E .G.B.e.g | .b2 z2 .[G,B,E]2 .[G,B,E]2 | .[G,B,_D]2 z .E .G.B.e.g | %3
 .b2 z2 .[G,B,_D]2 .[G,B,D]2 | .[A,C]2 z .E .A.c.e.a | c'2 (ba gfed) | (fege dcBA) | %7
 (AGBA) (GFAF) | E2 z2 z4 | z4!p! ([B,FA]4 | [B,EG]2) z!f! .E .G.B.e.g | %11
 .[Bb]2 b2- b/(=b/c'/a/ g/f/e/d/) |!p! (f2 e2) z (ege) | (a2 f2) z (faf) | (b2 g2) z (gbg) | %15
 (=bc'_ba gfba) | (^f2 g2) z (d/e/ =f/e/g/e/) | (a2 f2) z (=e/f/ g/f/=a/f/) | %18
 (b2 g2) z (^f/g/ a/g/b/g/) | (=bc')(T_ba) (Tgf)(Ted) | e2!p! (.[eg]2 .[eg]2 .[eg]2) | %21
 (.[eg]2 .[eg]2 .[eg]2 .[eg]2) | (.[ef]2 .[ef]2 .[ef]2 .[ef]2) | (.[df]2 .[df]2 .[df]2 .[df]2) | %24
!f! b3 d'/c'/ b/=a/g/f/ =e/d/c/B/ | =A/c/B/A/ B/c/d/=e/ f/e/d/c/ B/A/G/F/ | %26
!f! B/c/B/=A/ B/c/d/c/ B/A/G/F/ =E/D/C/B,/ | =A,/F,/G,/A,/ B,/C/D/=E/ F/G/=A/B/ c/d/e/=e/ | %28
 f/F/G/=A/ B/c/d/=e/ f/g/=a/b/ c'/d'/e'/=e'/ | f'2 z2!ff! [Ff]2 z2 | [F,F]2 z2 z4 | z8 | %32
!pp! .[F,B,D]4 .[F,B,D]4 | [F,B,D]6!p! ([G,D]2 | [G,C]2 =B,2 C2 [B,D]2 | [CE]4 [=B,D]2) z2 | %36
 .[G,CE]4 .[G,CE]4 | [F,CE]6!p! .[F,C]2 | .F,2 .F,2 .F,2 .B,2 | (B,4 =A,2) z2 |!p! .[Dd]4 .[Dd]4 | %41
 [Dd]6!p! ([Gg]2 | [Ge]2 d2 c2 [=Bd]2 | [ce]2 g2 [=Bd]2) z2 | .[Ge]4 .[_Ge]4 | [Fe]6!p! .[Fe]2 | %46
 .[Fd]2 .[Fc]2 .[Fd]2 .[B=e]2 | ([B=e]4 .[=Af]2) .[F_e]2 | .[Fd]2 .[Fc]2 .[Fd]2 .[B=e]2 | %49
!<(! ([B=e]4 .[=Af]2) .[A^f]2!<)! | [Gg]4 (c3 d/e/) | (fg=ab c'bab) | g4 (c3 d/e/) | %53
 (=efgf _edcB) | (^fg)(fg) (Tc3 d/e/) | (fg=ab c'bag) | (gf)(ed) (dc)(B=A) | .B.=A.G.F .E.D.C.B, | %58
 (G,B,CB, =A,CA,F,) | (B,DFD B,DB,F,) | (G,B,CB, =A,_G,CA,) | (F,B,DB, FDB,F,) | %62
 (G,B,CB, =A,_G,CA,) | z/ F,/G,/=A,/ B,/C/D/E/ F/G/A/B/ c/d/e/=e/ | f2 (gf edc=B) | c2 z2 z4 | %66
 !invertedturn!e2 (fe dcB=A) | B2 z2 z4 | ([Gd]4 [Ge]2 [Gf]2) | .[Ge]2 (gf edcB) | %70
 ([F=A]4 [FB]2 [Fc]2) | .[FB]2 (.Td3/2c/4d/4 .e2) (Tf3/2e/4f/4 | %72
 .g2) (Tf3/2e/4f/4 .g2) (T=a3/2g/4a/4) | .b2 (=a/b/c'/b/ .g2) (^f/g/a/g/ | %74
 .f2) (e/d/c/B/ =A/B/c/d/ e/f/g/=a/ | .b2) (=a/b/c'/b/ .g2) (^f/g/a/g/) | %76
 (Tf3/2=e/4f/4) .d'.c' .b.=a.g.f | z!f! (Tfb).=a!>(! .g.f.e.d!>)! | .c.B.=A.G .F.E.D.C | %79
 B,2 z2 z4 | (F4 .G2) .=A2 | B2 (3.B,.C.D (3.E.F.G (3.=A.B.c | (d4 .e2) .c2 | dfff ffff | %84
 ffff [ef][ef][ef][ef] | [df]fff ffff | ffff [ef][ef][ef][ef] | [df]bbb [ab][ab][ab][ab] | %88
!<(! [gb]e'e'e' e'e'e'e'!<)! |!>(! e'2 z2[K:bass] ^F,,4!>)! | %90
!<(! (3.G,,.=A,,.B,, (3.C,.D,.=E, (3.^F,.G,.=A, (3.B,.C.D | %91
 (3.=E.^F.G (3.=A.B.c!<)! .d2!ff! .[GBeg]2 | [Bdf]2 z2 [CE=A]2 z2 | %93
!pp! (3(G,=A,B, (3CD=E (3^FG=A (3Bcd | (3=e^fg (3=abc' .d'2)!ff! .[_egc'e']2 | %95
 [dfbd']2 z2 [cef=a]2 z2 | [Bdfb]2 (B2 .c2) ([ec']2 | .[db]2) (B2 .c2) ([c'e']2 | %98
 .[bd']2) ([Bd]2 .[ce]2) ([ec']2 | .[db]2) ([Bd]2 .[cf]2) ([c'e']2 | %100
 .[bd']2) ([e=a]2 .[db]2) ([ea]2 | .[db]2)!pp! ([E=A]2 .[DB]2) ([EA]2 | .[DB]2) z2 [DFB]2 z2 |1 %103
 [DFB]2 z2 z4 :|2 [DFB]2 z2 z4 || z4!p! .[DFB]2 .[DFB]2 | .[DF=B]2 z2 z4 | z4 .[DF=B]2 .[DFB]2 | %108
 .[Ec]2 z .C .E.G.c.e | .g2 z!f! .C .E.G.c.e |!ff! (g4 .e2) .c2 | .G2 .E2 .C2 .G,2 | %112
!p! A,2 z .A .c.e.a.c' | Te'8 | Te'8 | Te'8 |!<(! Te'8!<)! |!mf! e'4!>(! (_d'/c'/) z (b/a/) z!>)! | %118
!p! (g/f/) z (b/a/) z (g/f/) z (e/_d/) z | (c2{_dcBc} e2- e_dBG) | A2 z2 z4 | z4 ([_G_g]4 | %122
 [Ff]2) z2 z4 | z4 ([Ee]4 | [_D_d]2) z!<(! .F .B.d.f.b!<)! | %125
!mf!{/_d} _d'4!>(! (c'/b/) z (a/_g/) z!>)! |!p! (f/a/) z (_d/f/) z (A/d/) z (F/A/) z | %127
 (_G/B/) z (E/G/) z (C/E/) z (A,/C/) z | _D2 (3.D.E.F (3._G.A.B (3.c._d.e | (f4 ._g2) .e2 | %130
 f2 (3.F._G.A (3.B.c._d (3.e.f._g | (a4 .b2) .c'2 | _d'2!<(! (3._D.E.F (3._G.A.B (3.c._d!<)!.e | %133
 (f8 | =e2) z2 z4 | (c6 =B2 | c2) z2 z4 | (G4 A2 =A2 | B2) z2 z4 | (F4 _G2 E2 | F2) z2 z4 | %141
 (F4 _G2 =G2) |!<(! (A4 E2 [=EB]2)!<)! | ([F=A]2!>(! [B,F_A]4 [EG]2)!>)! | %144
!p! .[DF]2 ([FA]2 .[EG]2) ([Be]2 | .[Ad]2) ([fa]2 .[eg]2) ([be']2 | %146
 .[ad']2) ([FA]2 .[E_G]2) ([Be]2 | .[Ad]2) ([fa]2 .[e_g]2) ([be']2 | %148
 .[ad']2) ([e_g]2 .[df]2) ([_Ge]2 | .[Fd]2) ([E_G]2 .[DF]2) ([EG]2 | %150
 .[DF]2) ([E_G]2 .[DF]2) ([EG]2 | .[DF]2) (3.B,.C.D (3.E.F.G (3.=A.B.c | (d4 e2 c2) | [Bd]2 z2 z4 | %154
 (F4 _G2 E2) | (F4 _G2 E2) | (D4 E2 F2) |!<(! ([Gc]4 [Ad]2 [B=e]2)!<)! | .[cf]2 c'4 (b/a/g/f/) | %159
!f! e/d/g/f/ e/d/c/B/ =A/B/c/B/ _A/G/A/F/ |!f! [G,B,E]2 z!p! .E .G.B.e.g | %161
 .b2 z2 .[G,B,E]2 .[G,B,E]2 | .[G,B,_D]2 z .G .B.d.g.b | ._d'2 z2 .[G,B,_D]2 .[G,B,D]2 | %164
 .[A,C]2 z .E .A.c.e.a | (c'2 ba gfed) | (fege dcBA) | (AGBA) (GFAF) |!p! E2 e2 z (ege) | %169
 (a2 f2) z (faf) | (b2 g2) z (gbg) | (=bc'_ba gfed) | (f2 e).E .G.B.e.g | a2 z .F .A.d.f.a | %174
 b2 z!<(! .G .B.e.g.b!<)! |!f!{/e} e'2- (e'/d'/c'/b/) =a/b/c'/b/ a/g/f/e/ | %176
 d/f/e/d/ e/f/g/=a/ b/a/g/f/ e/d/c/B/ | (e/f/g/f/ e/d/c/B/) =A/B/c/B/ A/G/F/E/ | %178
 D/B,/C/D/ E/F/G/=A/ B/c/d/e/ f/g/a/=a/ | b2 z ([eg] [df]2) z ([ce] | [Bd]2) z2!ff! [Bb]2 z2 | %181
 B4- (B=BcA | BGAF GEFD) | .[B,E]4 .[G,B,EG]4 | [G,B,EG]6!p! ([CG]2 | [CF]2 =E2 [CF]2 [B,EG]2 | %186
 [CFA]4 [=EG]2) z2 | .[CFA]4 .[CFA]4 | [B,FA]6!p! [B,F]2 | .B,2 .B,2 .B,2 .E2 | (E4 D2) z2 | %191
 .[GBeg]4 .[GBeg]4 | [GBeg]6!p! (c'2 | a2 g2 g2 [=eg]2 | [fa]2 c'2 [=eg]2) z2 | %195
 .[Acfa]4 .[A_cfa]4 | [ABfa]6!p! .[Ba]2 | .[Bg]2 .[Bf]2 .[Bg]2 .[e=a]2 | ([e=a]4 [db]2) [B_a]2 | %199
 .[Bg]2 .[Bf]2 .[Bg]2 .[=A=a]2 |!<(! ([=A=a]4 [Bb]2 [=B=b]2)!<)! | [cc']4 (f3 g/a/) | %202
 (bc'd'e' d'e'f'e') | [cc']4 (f3 g/a/ | =abc'b _agfe) | (=bc')(bc') (Tf3 g/a/) | %206
 (bc'd'e' f'e'd'c') | (c'b)(ag) (gf)(ed) | .e.d.c.B .A.G.F.E | (CEFE DB,FD) | (EB,EG BGEB,) | %211
 (CEFE D_CFD) | (EB,EG BGBG) | (=Bc)(Bc) (F3 G/A/) | B2 (3z GA B/c/d/e/ f/g/a/=a/ | %215
 b2 (c'b agf=e) | f2 z2 z4 | !invertedturn!a2 (ba gfed) | e2 z2 z4 | [B=egb]8 | [Afa]2 z2 z4 | %221
 (Ta2 ba gfed) | .e2 (.Tf3/2e/4f/4 .g2) (Td3/2c/4d/4 | .e2) (Tf3/2e/4f/4 .g2) (Ta3/2g/4a/4) | %224
 .b2 (d'/e'/f'/e'/ .c'2) (=b/c'/d'/c'/ | .b2) (a/g/f/e/ d/e/f/g/ a/b/c'/d'/ | %226
 .e'2) (d'/e'/f'/e'/ .c'2) (=b/c'/d'/c'/ | .b2) (=a/b/c'/b/ ._a).g.f.e | %228
!f! .[Begb]2 (=a/b/c'/b/ ._a)!>(!.g.f.e!>)! | .d.c.B.A .G.F.E.D | E2 z2 z4 | (G4 .A2) .F2 | %232
 G2 (3.G.A.B (3.c.d.e (3.f.g.a | (b4 .c'2) .d'2 | e'bbb bbbb | bbbb [ab][ab][ab][ab] | %236
 [gb]bbb bbbb | bbbb [ab][ab][ab][ab] | [gb]e'e'e' e'e'e'e' | e'aaa aaaa | a2 z2[K:bass] =B,,4 | %241
!<(! (3.C,.D,.E, (3.F,.G,.=A, (3.=B,.C.D[K:treble] (3.E.F.G | %242
 (3.=A.=B.c (3.d.e.f!<)! .g2!ff! .[_Acfa]2 | [GBeg]2 z2 [FABd]2 z2 | %244
!pp! (3(CDE (3FG=A (3=Bcd (3efg | (3=a=bc' (3d'e'f' .e'2)!ff! .[ce_ac']2 | [Begb]2 z2 [FABd]2 z2 | %247
 [GBe]2 (b2- b=bc'a) | (bgaf gefd) | e2 z2 z4 | z (=EGc =egc'b) | (ac'=ec' fc'gc') | %252
 (ac'ac' gc'=bc') | .a(ABc defg) | (ad'!p!f'e' d'c'ba) | (gbfb gb=ae') | z (Te'f'e' d'c'ba) | %257
 (gbfb gb=ae') | z (T=e'f'_e' d'c'b=b) | (c'e=be c'ed'e) | (d'4 e'2) (=be | c'e=be c'ed'e) | %262
 .e'2 (d'/e'/f'/e'/ .c'2) (=b/c'/d'/c'/ | .b2) (a/g/f/e/ d/e/f/g/ a/b/c'/d'/ | %264
 .e'2) (d'/e'/f'/e'/ .c'2) =b/c'/d'/c'/ | ([gb]6 [fa]2) | .[eg]2 .[cf]2 .[Be]2 .[Ad]2 | %267
 [Ge]2 z!p! .E .G.B.e.g | .b2 z .G .B.e.g.b | .c'2 z .A .c.e.a.c' | %270
 (e'2!<(! .c').=a ._g.e.c.=A!<)! |!ff! B2!>(! b3 c'/b/ a/g/a/!>)!f/ |!p! eeee eeee | %273
 [_de][de][de][de] [de][de][de][de] | [ce][ce][ce][ce]!<(! [ce][ce][ce][ce]!<)! | %275
!f! [=Ace_g][Aceg][Aceg][Aceg] [Aceg][Aceg][Aceg][Aceg] | %276
 [Be=g]/G/A/B/ =B/c/^c/d/ e/=e/f/^f/ g/a/=a/b/ | %277
 =b/c'/^c'/d'/ e'/d'/_d'/=c'/ b/_b/=a/_a/ g/^f/=f/=e/ | .e.B b3 c'/b/ a/g/f/e/ | Tf8 | %280
 e2 ([Ge]2 .[Af]2) ([af']2 | .[ge']2) ([Ge]2 .[Af]2) ([fa]2 | .[eg]2) ([Ge]2 .[Af]2) ([af']2 | %283
 .[ge']2) ([Ge]2 .[Af]2) ([fa]2 | .[eg]2) ([Ad]2 .[Ge]2) ([Ad]2 | .[Ge]2) ([EG]2 [FA]2 [A,D]2 | %286
!pp! [G,E]2) ([A,D]2 .[G,E]2) ([A,D]2 | .[G,E]2) ([A,D]2 .[G,E]2) ([A,D]2 | .[G,E]2) z2 z4 | %289
!pp! (B/c/d/e/ f/e/d/c/ B/A/G/F/ E/D/C/B,/) | E2 z .E .G.B.e.g | %291
!ff! (b/c'/d'/e'/ f'/e'/d'/c'/ b/a/g/f/ e/d/c/B/) | .e2 z2 .[GBeg]2 z2 | .[EGBe]2 z2 z4 |] %294
V:4
!f! [E,,E,]2 z2 z4 | z4 .[E,,E,]2 .[E,,E,]2 | .[E,,E,]2 z2 z4 | z4 .[E,,E,]2 .[E,,E,]2 | %4
 .[A,,,A,,]2 z2 z4 | z4[K:treble] ([B,FA]4 | [CEG]6) ([A,F]2 | [B,E]2) z2 [B,D]2 z2 | %8
[K:bass] E,2 z2 z4 | z4 (D,4 | E,2) z .E, .G,.B,.E.G | z4 [B,,F,A,]4 | (E,G,B,E E,G,B,E | %13
 E,F,A,D E,F,A,D | E,G,B,_D E,G,B,D | E,A,CE E,F,A,D) | (EE,B,E, G,E,EE, | DE,A,E, F,E,DE,) | %18
 _DE,B,E, G,E,DE, | [A,C]E,[A,C]E, [F,D]E,[F,D]E, | [E,G,B,E]2 z2 z4 |[K:treble] z2 z .C .E.G.c.B | %22
 =A2[K:bass] z .F, .A,.C.F.A | B2 z .B, .D.F.B.=A | [G,B,=EG]8 | [F,F]2 F,2 z2 z F, | %26
 [G,,B,,=E,]8 | [F,,C,]2 F,2 F,2 F,2 | F,2 z ([B,D] [=A,C]2) z ([G,B,] | [F,=A,]2) z2 [F,,F,]2 z2 | %30
 [F,,,F,,]2 z2 z4 | z8 | .B,,4 .B,,4 | B,,6 (=B,,2 | C,2 G,,2 E,,2 D,,2 | C,,2 E,,2 G,,2) z2 | %36
 .C,4 .C,4 | =A,,6 .A,,2 | .B,,2 .=A,,2 .B,,2 .G,,2 | F,,6 z2 | .[B,,F,B,]4 .[B,,F,B,]4 | %41
 [B,,G,B,]6 ([=B,D]2 | C2 G2 E2 D2 | C2 E2 G2) z2 | .C4 .[B,C]4 | .[=A,C]6 .[A,C]2 | %46
 .[B,D]2 .[=A,C]2 .[B,D]2 .[G,B,]2 | [F,C]6 .[=A,C]2 | .[B,D]2 .[=A,C]2 .[B,D]2 .[G,B,]2 | %49
 [F,C]6 [D,C]2 | (E,G,B,E E,F,=A,C) | (D,F,B,D) z4 | (EGBG EF=AF) | (DFBF) z4 | %54
 (E,G,B,E E,F,=A,C) | (D,F,B,D[K:treble] FDEB) | (FBGB) E2 F2 | B,2 z2 z4 |[K:bass] ([E,,E,]8 | %59
 [D,,D,]2) z2 z4 | ([E,,E,]8 | [D,,D,]2) z2 z4 | ([=E,,=E,]4 [_E,,_E,]4 | [D,,D,]2) z2 z4 | %64
[K:treble] (D4 E2 F2) | E2 z2 z4 | (C4 D2 E2) | [B,D]2 z2 z4 |[K:bass] (F,2 G,F, E,D,C,=B,,) | %69
 C,2 z2 z4 | (E,2 F,E, D,C,B,,=A,,) | .B,,2 .A,,2 .G,,2 .D,2 | .E,2 .D,2 .E,2 .C,2 | %73
 !arpeggio![D,F,B,]2 z2 !arpeggio![E,G,B,E]2 z2 | !arpeggio![F,B,D]2 z2 z2 E,2 | %75
 !arpeggio![D,F,B,]2 z2 !arpeggio![E,G,B,E]2 z2 | !arpeggio![F,B,D]2 z2 z2 z2 | F,,2 z2 z4 | %78
 [F,,=A,,C,E,]8 | z2 (3.D,.E,.F, (3.G,.=A,.B, (3.C.D.E | B,,,B,,B,,,B,, B,,,B,,B,,,B,, | %81
 B,,,B,,B,,,B,, B,,,B,,B,,,B,, | B,,,B,,B,,,B,, B,,,B,,B,,,B,, | %83
 B,,,2 (3.D,.E,.F, (3.G,.=A,.B, (3.C.D.E |[K:treble] (F4 .G2) .=A2 | %85
 B2[K:bass] (3.D,.E,.F, (3.G,.=A,.B, (3.C.D.E |[K:treble] (F4 G2 =A2) | (B4 c2 d2) | %88
 ([Ge]4 [=Af]2 [Bg]2) | [c=a]2 z2[K:bass] ^F,,,4 | %90
 (3.G,,,.=A,,,.B,,, (3.C,,.D,,.=E,, (3.^F,,.G,,.=A,, (3.B,,.C,.D, | %91
 (3.=E,.^F,.G, (3.=A,.B,.C .D2 .[_E,E]2 | [F,F]2 z2 [F,,F,]2 z2 | %93
 (3(G,,=A,,B,, (3C,D,=E, (3^F,G,=A, (3B,CD) | (3(=E^FG (3=ABc d2)[K:bass] .[E,_E]2 | %95
 [F,F]2 z2 [F,,F,]2 z2 | B,,!p! F,2 B, =A, F,2 =A,, | B,, F,2 B, =A, F,2 =A,, | %98
 B,, F,2 B, =A, F,2 =A,, | B,, F,2 B, =A, F,2 =A,, | B,, F,2 F,, B,, F,2 F,, | %101
 B,, F,2 F,, B,, F,2 F,, | B,,2 z2 B,2 z2 |1 B,,2 z2 z4 :|2 B,,2 z2 z4 || z4 .[B,,B,]2 .[B,,B,]2 | %106
 .[G,,G,]2 z2 z4 | z4 .[G,,G,]2 .[G,,G,]2 | .[C,C]2 z2 z4 | z2 z .C, .E,.G,.C.E | %110
 (G4 .E2) .[C,C]2 | .[G,,G,]2 .[E,,E,]2 .[C,,C,]2 .[G,,,G,,]2 | %112
 (3[A,,,A,,]C,E, (3A,E,C, (3A,,C,E, (3A,E,C, | (3A,,C,E, (3A,E,C, (3A,,C,E, (3A,E,C, | %114
 (3B,,_D,E, (3G,E,D, (3B,,D,E, (3G,D,B,, | (3B,,_D,E, (3G,E,D, (3B,,D,E, (3G,D,B,, | %116
 (3C,E,A, (3CA,E, (3C,E,A, (3CA,E, | (3C,E,A, (3CA,E, (3C,E,A, (3CA,E, | %118
 (3_D,F,A, (3B,A,F, (3D,F,A, (3B,A,F, | (3E,A,C (3ECA, (3E,B,_D (3EDB, | %120
 (3A,,C,E, (3A,E,C, (3A,,C,E, (3A,E,C, | (3A,,C,E, (3A,E,C, (3A,,C,E, (3A,E,C, | %122
 (3=A,,C,E, (3F,E,C, (3A,,C,E, (3F,E,C, | (3=A,,C,E, (3F,E,C, (3A,,C,E, (3F,E,C, | %124
 (3B,,_D,F, (3B,E,D, (3B,,D,F, (3B,F,D, | (3_G,,_D,_G, (3B,G,D, (3G,,D,G, (3B,G,D, | %126
 (3A,,_D,F, (3A,F,D, (3A,,D,F, (3A,F,D, | (3A,,E,_G, (3A,G,E, (3A,,E,G, (3A,,E,G, | %128
 _D,,_D,D,,D, D,,D,D,,D, | _D,,_D,D,,D, D,,D,D,,D, | _D,,_D,D,,D, D,,D,D,,D, | %131
 _D,,_D,D,,D, D,,D,D,,D, | _D,,2 z2 z4 | ([_DF]8 | [CG]2) (3.C,.D,.=E, (3.F,.G,.=A, (3.=B,.C.D | %135
 (=E4 F2 D2 | =E2) z2 z4 | [CE]8 | [B,F]2 z2 z4 | B,,2 B,2 B,2 B,2 | B,2 z2 z4 | [B,_D]8 | %142
 z2 C4 C2 | [F,C]2 (D,2 E,2 [=A,,=A,]2) | B,, B,2 D, E, B,2 G, | F, B,2 D, E, B,2 =A,, | %146
 B,, B,2 D, E, B,2 _G, | F, B,2 D, E, B,2 =A,, | B,, B,2 =A,, B,, B,2 A,, | %149
 B,,!pp! B,2 =A,, B,, B,2 A,, | B,, B,2 =A,, B,, B,2 A,, | B,,2 z2 z4 | B,,2 B,2 B,2 B,2 | %153
 B,2 (3.B,,.C,.D, (3.E,.F,.G, (3.=A,.B,.C | (D4 E2 C2) | (D4 E2 C2) | (B,4 C2 D2) | (=E4 F2 G2) | %158
 ([F,A,]4 [G,B,]2 [A,C]2) | ([B,D]4 [CE]2 [DF]2) |!f! [E,,E,]2 z2 z4 | z4 .[E,,E,]2 .[E,,E,]2 | %162
 .[E,,E,]2 z2 z4 | z4 .[E,,E,]2 .[E,,E,]2 | .[A,,,A,,]2 z2 z4 | z4[K:treble] ([B,FA]4 | %166
 [CEG]2) z4[K:bass] ([A,F]2 | [B,E]2) z2 B,,2 z2 | (E,G,B,E E,G,B,E | E,F,A,D E,F,A,D | %170
 E,G,B,_D E,G,B,D | E,A,CE E,F,A,D) | [G,B,]E,[G,B,]E, [G,B,]E,[G,B,]E, | %173
 [A,D]E,[A,D]E, [A,D]E,[A,D]E, | [G,B,]E,[G,B,]E, [G,B,]E,[G,B,]E, | [C,E,=A,]8 | %176
 [B,,B,]2 z .B,, .D,.F,.B,.D | [C,E,=A,]8 | B,,2 B,2 B,2 B,2 | %179
 z/ B,,/C,/D,/ E,/F,/G,/=A,/ B,/C/D/E/ F/G/A/=A/ | z4 [B,,B,]2 z2 | [B,,,B,,]2 z2 z4 | z8 | %183
 .[E,,E,]4 .[E,,E,]4 | z8 | z8 | z8 | .[F,,F,]4 .[F,,F,]4 | [D,,D,]6 D,,2 | E,,2 D,,2 E,,2 C,,2 | %190
 B,,,6 z2 | .[E,G,B,E]4 .[E,G,B,E]4 | [E,G,B,E]6 [=E,=E]2 | [F,F]2[K:treble] (c2 A2 G2 | %194
 F2 A2 c2) z2 | .F4 .[EF]4 | [DF]6 .[DF]2 | .E2 .D2 .E2 .[CE]2 | ([CE]4 [B,D]2) .[DF]2 | %199
 .E2 .D2 .E2 .[CE]2 | ([CE]4 [B,D]2) G,2 | (A,CEC A,B,DB,) | (G,B,EG) B2 z G | (Acec ABdB) | %204
 (GBe) z z4 | (=A,CEC _A,_CDC) | (G,B,EG BGAe) | (Bece) A2 B2 | E2 z2 z4 |[K:bass] (([A,,A,]8 | %210
 [G,,G,]2)) z2 z4 | ([A,,A,]8 | [G,,G,]2) z2 z4 | (=A,CEC _A,_CDC) | (3z G,B, E2 z4 | (G4 A2 B2) | %216
 [FA]2 z2 z4 | (F4 G2 A2) | [EG]2 z2 z4 |[K:bass] [C,=E,G,C]8 | [F,A,CF]2 z2 z4 | [B,,F,A,]8 | %222
 .[E,G,]2[K:treble] .D2 .E2 .F2 | .G2 .D2 .E2 .F2 | !arpeggio![G,B,EG]2 z2 !arpeggio![A,CEA]2 z2 | %225
 !arpeggio![B,EG]2 z2 z2 !arpeggio![A,B,F]2 | !arpeggio![G,B,E]2 z2 !arpeggio![A,CE]2 z2 | %227
 !arpeggio![B,EG]2 z2 z4 | [B,,E,G,]2 z2 z [B,,E,G,][B,,E,G,][B,,E,G,] | [B,,F,A,]8 | %230
 z2 (3.E,.F,.G, (3.A,.B,.C (3.D.E.F | E,,E,E,,E, E,,E,E,,E, | E,,E,E,,E, E,,E,E,,E, | %233
 E,,E,E,,E, E,,E,E,,E, | E,,2 (3.E,.F,.G, (3.A,.B,.C (3.D.E.F | (G4 .A2) .F2 | %236
 G2[K:bass] (3.E,.F,.G, (3.A,.B,.C (3.D.E.F |[K:treble] (G4 .A2) .F2 | (G4 .A2) .B2 | %239
 c2 ([CA]2 [DB]2 [Ec]2) | [Fd]2 z2[K:bass] =B,,,4 | %241
 (3.C,,.D,,.E,, (3.F,,.G,,.__B,, (3._C,.=C,.D, (3.E,.F,.G, | (3.=A,.=B,.C (3.D.E.F .G2 .[A,,_A,]2 | %243
 [B,,B,]2 z2 [B,,,B,,]2 z2 | (3(C,D,E, (3F,G,=A, (3=B,CD[K:treble] (3EFG) | %245
 (3(=A=Bc (3Bcd .c2)[K:bass] .[A,,A,]2 | [F,F]2 z2 [F,,F,]2 z2 | [E,,E,]2 z2 z4 | z8 | %249
 .[G,B,]4 .[G,B,]4 | [G,C]6[K:treble]!p! (G2 | F2 C2) (C2 =E2 | F2) (F2 =E2) z2 | .[CF]4 .[_CFA]4 | %254
 [B,FA]6[K:bass] .D,2 | .E,2 .D,2 .E,2 .C,2 | B,,2 B,4 .D,2 | .E,2 .D,2 .E,2 .C,2 | %258
 B,,2 B,4 ([G,B,]2 | [A,C]2 [G,=B,]2 [A,C]2 [F,A,]2) | [G,B,]2 E4 ([G,G]2 | %261
 [A,A]2 [G,G]2 [A,A]2 [F,F]2) | !arpeggio![G,B,EG]2 z2 !arpeggio![A,CEA]2 z2 | %263
 !arpeggio![B,EG]2 z2 z2 !arpeggio![A,B,F]2 | !arpeggio![G,B,E]2 z2 !arpeggio![A,CE]2 z2 | %265
 B,2[K:treble] (B4 =B2) | c2 [A,A]2 [B,G]2 [B,F]2 | [E,E]2 z2 z2 z .E,, | %268
 .G,,.B,,.E,.G, .B,2 z .G,, | .A,,.C,.E,.A, .C2 z .A,, | .=A,,.C,.E,._G, .=A,.C.E._G | %271
 [B,EG][B,EG][B,EG][B,EG] [B,DA][B,DA][B,DA][B,DA] | [EG]2[K:bass] z .E,, .G,,.B,,.E,.G, | %273
 .B,2 z .G,, .B,,.E,.G,.B, | .C2 z .A,, .C,.E,.A,.C | (E2 .C).=A, ._G,.E,.C,.=A,, | B,,2 z2 z4 | %277
 z8 | [B,EG][B,EG][B,EG][B,EG] [B,EG][B,EG][B,EG][B,EG] | %279
 [B,EA][B,EA][B,EA][B,EA] [B,DA][B,DA][B,DA][B,DA] | E,!p! B,2 E D B,2 D, | E, B,2 E D B,2 D, | %282
 E, B,2 E D B,2 D, | E, B,2 E D B,2 D, | E, B,2 B,, E, B,2 B,, | E,2 z2 z4 | %286
 E,, B,,2 B,,, E,, B,,2 B,,, | E,, B,,2 B,,, E,, B,,2 B,,, | E,,2 z2 z4 | [B,,F,A,]8 | %290
 [E,G,]2 z .E, .G,.B,.E.G |[K:treble] [B,FA]8 | .[EG]2 z2[K:bass] .[E,E]2 z2 | .[E,,E,]2 z2 z4 |] %294
V:5
 x8 | x8 | x8 | x8 | x8 | x4[K:treble] x4 | x8 | x8 |[K:bass] x8 | x8 | x8 | x8 | x8 | x8 | x8 | %15
 x8 | x8 | x8 | x8 | x8 | x8 |[K:treble] x8 | x2[K:bass] x6 | x8 | x8 | x8 | x8 | x8 | x8 | x8 | %30
 x8 | x8 | x8 | x8 | x8 | x8 | x8 | x8 | x8 | x8 | x8 | x8 | x8 | x8 | x8 | x8 | x8 | x8 | x8 | %49
 x8 | x8 | x8 | x8 | x8 | x8 | x4[K:treble] x4 | x8 | x8 |[K:bass] x8 | x8 | x8 | x8 | x8 | x8 | %64
[K:treble] x8 | x8 | x8 | x8 |[K:bass] x8 | x8 | x8 | x8 | x8 | x8 | x8 | x8 | x8 | x8 | x8 | %79
 B,,,B,,B,,,B,, B,,,B,,B,,,B,, | x8 | x8 | x8 | x8 |[K:treble] x8 | x2[K:bass] x6 |[K:treble] x8 | %87
 x8 | x8 | x4[K:bass] x4 | x8 | x8 | x8 | x8 | x6[K:bass] x2 | x8 | x8 | x8 | x8 | x8 | x8 | x8 | %102
 x8 |1 x8 :|2 x8 || x8 | x8 | x8 | x8 | x8 | x8 | x8 | x8 | x8 | x8 | x8 | x8 | x8 | x8 | x8 | x8 | %121
 x8 | x8 | x8 | x8 | x8 | x8 | x8 | x8 | x8 | x8 | x8 | x8 | x8 | x8 | x8 | x8 | x8 | x8 | x8 | %140
 x8 | x8 | A,6 G,2 | x8 | x8 | x8 | x8 | x8 | x8 | x8 | x8 | x8 | x8 | x8 | x8 | x8 | x8 | x8 | %158
 x8 | x8 | x8 | x8 | x8 | x8 | x8 | x4[K:treble] x4 | x6[K:bass] x2 | x8 | x8 | x8 | x8 | x8 | x8 | %173
 x8 | x8 | x8 | x8 | x8 | x8 | x8 | x8 | x8 | x8 | x8 | x8 | x8 | x8 | x8 | x8 | x8 | x8 | x8 | %192
 x8 | x2[K:treble] x6 | x8 | x8 | x8 | x8 | x8 | x8 | x8 | x8 | x8 | x8 | x8 | x8 | x8 | x8 | x8 | %209
[K:bass] x8 | x8 | x8 | x8 | x8 | x8 | x8 | x8 | x8 | x8 |[K:bass] x8 | x8 | x8 | x2[K:treble] x6 | %223
 x8 | x8 | x8 | x8 | x8 | x8 | x8 | E,,E,E,,E, E,,E,E,,E, | x8 | x8 | x8 | x8 | x8 | %236
 x2[K:bass] x6 |[K:treble] x8 | x8 | x8 | x4[K:bass] x4 | x8 | x8 | x8 | x6[K:treble] x2 | %245
 x6[K:bass] x2 | x8 | x8 | x8 | x8 | x6[K:treble] x2 | x8 | x8 | x8 | x6[K:bass] x2 | x8 | x8 | %257
 x8 | x8 | x8 | x8 | x8 | x8 | x8 | x8 | x2[K:treble] x6 | x8 | x8 | x8 | x8 | x8 | x8 | %272
 x2[K:bass] x6 | x8 | x8 | x8 | x8 | x8 | x8 | x8 | x8 | x8 | x8 | x8 | x8 | x8 | x8 | x8 | x8 | %289
 x8 | x8 |[K:treble] x8 | x4[K:bass] x4 | x8 |] %294
V:6
 x8 | x8 | x8 | x8 | x8 | x8 | x8 | x8 | x8 | x8 | x8 | x8 | x8 | x8 | x8 | x8 | x8 | x8 | x8 | %19
 x8 | x8 | x8 | x8 | x8 | x8 | x8 | x8 | x8 | x8 | x8 | x8 | x8 | x8 | x8 | x8 | x8 | x8 | x8 | %38
 x8 | x8 | x8 | x8 | x8 | x8 | x8 | x8 | x8 | x8 | x8 | x8 | x8 | x8 | x8 | x8 | x8 | x8 | x8 | %57
 x8 | x8 | x8 | x8 | x8 | x8 | x8 | x8 | x8 | x8 | x8 | x8 | x8 | x8 | x8 | x8 | x8 | x8 | x8 | %76
 x8 | x8 | x8 | x8 | x8 | x8 | x8 | x8 | x8 | x8 | x8 | x8 | x8 | x4[K:bass] x4 | x8 | x8 | x8 | %93
 x8 | x8 | x8 | x8 | x8 | x8 | x8 | x8 | x8 | x8 |1 x8 :|2 x8 || x8 | x8 | x8 | x8 | x8 | x8 | x8 | %112
 x8 | x8 | x8 | x8 | x8 | x8 | x8 | x8 | x8 | x8 | x8 | x8 | x8 | x8 | x8 | x8 | x8 | x8 | x8 | %131
 x8 | x8 | x8 | x8 | x8 | x8 | x8 | x8 | x8 | x8 | x8 | x8 | x8 | x8 | x8 | x8 | x8 | x8 | x8 | %150
 x8 | x8 | B6 =A2 | x8 | x8 | x8 | x8 | x8 | x8 | x8 | x8 | x8 | x8 | x8 | x8 | x8 | x8 | x8 | x8 | %169
 x8 | x8 | x8 | x8 | x8 | x8 | x8 | x8 | x8 | x8 | x8 | x8 | x8 | x8 | x8 | x8 | x8 | x8 | x8 | %188
 x8 | x8 | x8 | x8 | x8 | x8 | x8 | x8 | x8 | x8 | x8 | x8 | x8 | x8 | x8 | x8 | x8 | x8 | x8 | %207
 x8 | x8 | x8 | x8 | x8 | x8 | x8 | x8 | x8 | x8 | x8 | x8 | x8 | x8 | x8 | x8 | x8 | x8 | x8 | %226
 x8 | x8 | x8 | x8 | x8 | x8 | x8 | x8 | x8 | x8 | x8 | x8 | x8 | x8 | x4[K:bass] x4 | %241
 x6[K:treble] x2 | x8 | x8 | x8 | x8 | x8 | x8 | x8 | x8 | x8 | x8 | x8 | x8 | x8 | x8 | x8 | x8 | %258
 x8 | x8 | x8 | x8 | x8 | x8 | x8 | x8 | x8 | x8 | x8 | x8 | x8 | x8 | x8 | x8 | x8 | x8 | x8 | %277
 x8 | x8 | x8 | x8 | x8 | x8 | x8 | x8 | x8 | x8 | x8 | x8 | x8 | x8 | x8 | x8 | x8 |] %294

